X:1901
T:Bourrée de la Marguerite de Gennes (version Esbelin/Pauvert)
M:3/8
L:1/16
K:C
dedcd2|e2edc2|dedcd2|e4c2:|\
|:efg2a2|g4d2|efg2f2|e2d4|\
c2c2d2|e2g2f2|e2d4|c6:|


